public/assets/routes_avatar/subjectRateRela.svg

<?xml version="1.0" encoding="UTF-8"?>
<svg width="60px" height="60px" viewBox="0 0 60 60" version="1.1" xmlns="http://www.w3.org/2000/svg" xmlns:xlink="http://www.w3.org/1999/xlink">
    <!-- Generator: Sketch 49.3 (51167) - http://www.bohemiancoding.com/sketch -->
    <title>系统维护-科目税率对应表</title>
    <desc>Created with Sketch.</desc>
    <defs>
        <rect id="path-1" x="0" y="0.828088578" width="23.9631336" height="26.3846154" rx="1.92"></rect>
        <rect id="path-2" x="15.6682028" y="19.7884615" width="12.9032258" height="7.53846154" rx="2"></rect>
    </defs>
    <g id="icon" stroke="none" stroke-width="1" fill="none" fill-rule="evenodd">
        <g id="系统维护-科目税率对应表">
            <circle id="Oval-Copy" fill="#07D3CF" cx="30" cy="30" r="30"></circle>
            <g id="Group-11" transform="translate(15.000000, 16.000000)">
                <g id="Rectangle-15-Copy">
                    <use fill="#07D3CF" fill-rule="evenodd" xlink:href="#path-1"></use>
                    <rect stroke="#FFFFFF" stroke-width="1.5" x="0.75" y="1.57808858" width="22.4631336" height="24.8846154" rx="1.92"></rect>
                </g>
                <rect id="Rectangle-16" fill="#FFFFFF" x="2.64976959" y="5.39685315" width="14.7465438" height="1.61538462" rx="0.807692308"></rect>
                <rect id="Rectangle-18" fill="#07D3CF" x="14.9001536" y="18.9807692" width="14.7465438" height="8.34615385"></rect>
                <rect id="Rectangle-16-Copy" fill="#FFFFFF" x="2.76497696" y="9.49446387" width="14.7465438" height="1.61538462" rx="0.807692308"></rect>
                <rect id="Rectangle-16-Copy-3" fill="#FFFFFF" x="2.76497696" y="13.5920746" width="14.7465438" height="1.61538462" rx="0.807692308"></rect>
                <g id="Rectangle-19">
                    <use fill="#07D3CF" fill-rule="evenodd" xlink:href="#path-2"></use>
                    <rect stroke="#FFFFFF" stroke-width="1" x="16.1682028" y="20.2884615" width="11.9032258" height="6.53846154" rx="2"></rect>
                </g>
                <path d="M20.0208551,22.5342721 L20.4206571,22.5342721 C20.3283951,22.2939385 20.2284446,22.0816439 20.1208056,21.8933827 L20.4437226,21.7331603 C20.5552058,21.9334382 20.6628448,22.1577495 20.7704838,22.4060942 L20.5244518,22.5342721 L20.9319424,22.5342721 C21.0588026,22.2699052 21.1702859,21.9895161 21.2625479,21.6890992 L21.6469729,21.8332993 C21.5547109,22.089655 21.4547604,22.325983 21.3432771,22.5342721 L21.7469234,22.5342721 L21.7469234,23.9161898 L21.3432771,23.9161898 L21.3432771,24.8775239 C21.3432771,24.949624 21.3663426,24.9896796 21.4163179,24.9896796 L21.5470224,24.9896796 C21.5777764,24.9896796 21.6046861,24.9656462 21.6200631,24.9175795 C21.6392844,24.8615017 21.6508171,24.7012793 21.6585056,24.4369124 L22.0121767,24.5490681 C21.9852669,24.9456184 21.9429802,25.1819464 21.8814722,25.258052 C21.8199642,25.330152 21.7315464,25.3662021 21.6123746,25.3662021 L21.2971461,25.3662021 C21.0818681,25.3662021 20.9742291,25.2300131 20.9742291,24.9616406 L20.9742291,23.9161898 L20.7320413,23.9161898 C20.6897546,24.6171626 20.4514111,25.1258686 20.0208551,25.4423077 L19.805577,25.0778018 C20.1361826,24.849485 20.3245508,24.4609458 20.3629933,23.9161898 L20.0208551,23.9161898 L20.0208551,22.5342721 Z M21.3817196,23.5476784 L21.3817196,22.9027835 L20.3899031,22.9027835 L20.3899031,23.5476784 L21.3817196,23.5476784 Z M18.5369745,22.7505722 L19.052104,22.7505722 L19.052104,22.3019496 C18.9060225,22.3219774 18.759941,22.3420052 18.606171,22.3580275 L18.5254417,21.9734938 C18.9829075,21.9334382 19.3942423,21.8573326 19.7556018,21.7411714 L19.8978391,22.1257051 C19.7517575,22.1657606 19.5979875,22.2058162 19.436529,22.2378607 L19.436529,22.7505722 L19.8709293,22.7505722 L19.8709293,23.1551337 L19.436529,23.1551337 L19.436529,23.3393894 C19.6095203,23.5236451 19.7825115,23.723923 19.9593471,23.9442287 L19.7325363,24.3007235 C19.6172088,24.0924344 19.5211025,23.9242009 19.436529,23.7880119 L19.436529,25.3902354 L19.052104,25.3902354 L19.052104,23.8320731 C18.9329322,24.1364955 18.7868507,24.4128791 18.6138595,24.6692349 L18.4331797,24.1805567 C18.6945887,23.8761342 18.8906455,23.5356617 19.0136615,23.1551337 L18.5369745,23.1551337 L18.5369745,22.7505722 Z M22.3850689,22.0135494 L23.8381955,22.0135494 C23.7920645,21.917416 23.7420893,21.8252882 23.6882698,21.745177 L24.0957603,21.6730769 C24.1418913,21.7732159 24.1918665,21.8853715 24.2418418,22.0135494 L25.7449436,22.0135494 L25.7449436,22.4060942 L24.1457355,22.4060942 C24.061162,22.5783332 23.9650558,22.7265389 23.8651053,22.8467056 L24.1957108,22.8146612 C24.2725958,22.7105166 24.353325,22.6023665 24.4378985,22.4902109 L24.7992581,22.634411 C24.460964,23.0590002 24.168801,23.3874561 23.9189248,23.6197785 L24.414833,23.5476784 C24.3802348,23.4635617 24.3456365,23.3874561 24.3110383,23.3193616 L24.6493323,23.2032004 C24.7723483,23.4235061 24.8761431,23.6598341 24.9684051,23.9161898 L24.6108898,24.0844233 C24.58398,24.0043121 24.5570703,23.9282065 24.5340048,23.8561064 C24.4417428,23.8721287 24.353325,23.8841453 24.2687515,23.9001676 L24.2687515,24.2566623 L25.8064516,24.2566623 L25.8064516,24.6532126 L24.2687515,24.6532126 L24.2687515,25.4342966 L23.861261,25.4342966 L23.861261,24.6532126 L22.3312494,24.6532126 L22.3312494,24.2566623 L23.861261,24.2566623 L23.861261,23.9522398 C23.6998025,23.9682621 23.538344,23.9842843 23.3730412,23.996301 L23.292312,23.6317951 C23.3345987,23.623784 23.3768855,23.6117674 23.4230165,23.5997507 C23.5460325,23.5356617 23.7113353,23.3914616 23.9112363,23.1591392 C23.7420893,23.1751614 23.5652537,23.1871781 23.3807297,23.2032004 L23.307689,22.8747445 C23.476836,22.7986389 23.6190732,22.6424221 23.7344008,22.4060942 L22.3850689,22.4060942 L22.3850689,22.0135494 Z M23.000149,23.2432559 L23.3000005,23.4755784 C23.1000995,23.723923 22.89251,23.932212 22.6772319,24.09644 L22.4081344,23.7840064 C22.6272567,23.6317951 22.8233135,23.451545 23.000149,23.2432559 Z M22.7156744,22.4541609 C22.9309525,22.6063721 23.1154765,22.7665945 23.2654022,22.9268168 L22.9886162,23.215217 C22.8579117,23.0630058 22.6772319,22.9027835 22.4427327,22.7305444 L22.7156744,22.4541609 Z M25.1298636,23.2392504 C25.3643628,23.4275116 25.5642639,23.6157729 25.7257224,23.8040342 L25.4297151,24.1084566 C25.2990106,23.9161898 25.1144866,23.7119063 24.8761431,23.4916006 L25.1298636,23.2392504 Z M25.3336088,22.4421442 L25.6449931,22.6824777 C25.4758461,22.8947723 25.2951663,23.0710169 25.1067981,23.2112115 L24.8530776,22.9148001 C25.0299131,22.7786111 25.1875273,22.6223943 25.3336088,22.4421442 Z" id="税率" fill="#FFFFFF"></path>
                <polygon id="￥" fill="#FFFFFF" points="4.60829493 16.9615385 5.94831789 16.9615385 7.37327189 19.74227 8.79822589 16.9615385 10.1382488 16.9615385 8.32638681 20.1764706 9.53429484 20.1764706 9.53429484 20.7861991 7.9772259 20.7861991 7.96778912 20.7954374 7.96778912 21.5622172 9.53429484 21.5622172 9.53429484 22.1719457 7.96778912 22.1719457 7.96778912 23.5576923 6.77875466 23.5576923 6.77875466 22.1719457 5.22168572 22.1719457 5.22168572 21.5622172 6.77875466 21.5622172 6.77875466 20.7954374 6.76931788 20.7861991 5.22168572 20.7861991 5.22168572 20.1764706 6.42015697 20.1764706"></polygon>
            </g>
        </g>
    </g>
</svg>

<svg width="60" height="60" xmlns="http://www.w3.org/2000/svg" xmlns:xlink="http://www.w3.org/1999/xlink"><defs><rect id="a" x="0" y=".828" width="23.963" height="26.385" rx="1.92"/><rect id="b" x="15.668" y="19.788" width="12.903" height="7.538" rx="2"/></defs><g fill="none" fill-rule="evenodd"><circle fill="#07D3CF" cx="30" cy="30" r="30"/><g transform="translate(15 16)"><use fill="#07D3CF" xlink:href="#a"/><rect stroke="#FFF" stroke-width="1.5" x=".75" y="1.578" width="22.463" height="24.885" rx="1.92"/><rect fill="#FFF" x="2.65" y="5.397" width="14.747" height="1.615" rx=".808"/><path fill="#07D3CF" d="M14.9 18.981h14.747v8.346H14.9z"/><rect fill="#FFF" x="2.765" y="9.494" width="14.747" height="1.615" rx=".808"/><rect fill="#FFF" x="2.765" y="13.592" width="14.747" height="1.615" rx=".808"/><use fill="#07D3CF" xlink:href="#b"/><rect stroke="#FFF" x="16.168" y="20.288" width="11.903" height="6.538" rx="2"/><path d="M20.02 22.534h.4a4.634 4.634 0 0 0-.3-.64l.324-.16c.111.2.219.424.326.672l-.246.128h.408a6.06 6.06 0 0 0 .33-.845l.385.144a5.294 5.294 0 0 1-.304.701h.404v1.382h-.404v.962c0 .072.023.112.073.112h.131c.03 0 .058-.024.073-.072.02-.056.03-.217.039-.481l.353.112c-.027.397-.069.633-.13.71-.062.071-.15.107-.27.107h-.315c-.215 0-.323-.136-.323-.404v-1.046h-.242c-.042.701-.28 1.21-.711 1.526l-.215-.364c.33-.229.519-.617.557-1.162h-.342v-1.382zm1.362 1.014v-.645h-.992v.645h.992zm-2.845-.797h.515v-.45c-.146.021-.292.041-.446.057l-.08-.385c.457-.04.868-.116 1.23-.232l.142.385c-.146.04-.3.08-.461.112v.513h.434v.404h-.434v.184c.173.185.346.385.522.605l-.226.357a12.29 12.29 0 0 0-.296-.513v1.602h-.385v-1.558c-.12.304-.265.58-.438.837l-.18-.488a2.96 2.96 0 0 0 .58-1.026h-.477v-.404zm3.848-.737h1.453a2.17 2.17 0 0 0-.15-.269l.408-.072c.046.1.096.212.146.34h1.503v.393h-1.6c-.084.172-.18.32-.28.44l.33-.031c.078-.104.158-.213.243-.325l.361.144c-.338.425-.63.753-.88.986l.496-.072a3.157 3.157 0 0 0-.104-.229l.338-.116c.123.22.227.457.32.713l-.358.168c-.027-.08-.054-.156-.077-.228-.092.016-.18.028-.265.044v.357h1.537v.396H24.27v.781h-.408v-.78h-1.53v-.397h1.53v-.305c-.161.016-.323.032-.488.044l-.08-.364c.042-.008.084-.02.13-.032.123-.064.288-.209.488-.44-.169.015-.346.027-.53.043l-.073-.328c.169-.076.311-.233.426-.469h-1.349v-.392zm.615 1.23l.3.232c-.2.248-.407.456-.623.62l-.269-.312c.22-.152.415-.332.592-.54zm-.284-.79c.215.152.4.313.55.473l-.277.288a3.275 3.275 0 0 0-.546-.484l.273-.277zm2.414.785c.234.189.434.377.596.565l-.296.304a3.716 3.716 0 0 0-.554-.616l.254-.253zm.204-.797l.311.24c-.17.213-.35.389-.538.53l-.254-.297c.177-.136.335-.293.48-.473zM4.608 16.962h1.34l1.425 2.78 1.425-2.78h1.34l-1.812 3.214h1.208v.61H7.977l-.01.01v.766h1.567v.61H7.968v1.386h-1.19v-1.386H5.223v-.61h1.557v-.767l-.01-.009H5.222v-.61H6.42z" fill="#FFF"/></g></g></svg>
